img/icon-pdf.svg

<svg width="256" height="256" viewBox="0 0 256 256" fill="none" xmlns="http://www.w3.org/2000/svg">
<path d="M204.717 153.983C179.924 153.983 159.77 174.131 159.77 198.915C159.77 223.7 179.924 243.847 204.717 243.847C229.509 243.847 249.663 223.7 249.663 198.915C249.663 174.131 229.509 153.983 204.717 153.983ZM204.077 235.319L168.354 203.126L175.872 194.758L199.118 215.705V166.296H210.368V214.905L233.668 194.651L241.026 203.126L204.077 235.319Z" fill="#FFB600"/>
<path d="M172.245 244.754H17.2501V11.2463H160.569V48.4497H198.478V143.111C200.504 142.897 202.583 142.791 204.716 142.791C206.422 142.791 208.075 142.844 209.728 143.004V56.7112V40.7212L206.102 37.1501L171.819 3.5711L168.193 0H152.464H6V256H209.781V254.881C208.128 255.041 206.422 255.094 204.769 255.094C192.613 255.094 181.416 251.256 172.245 244.754ZM171.819 19.0281L190.373 37.2034H171.819V19.0281Z" fill="#FFB600"/>
<path d="M61.5061 101.378C64.8118 101.378 67.5844 100.899 69.877 99.9394C72.1697 98.98 74.0358 97.7008 75.5287 96.1551C76.9683 94.6094 78.0347 92.7972 78.6745 90.7718C79.3143 88.7464 79.6875 86.6677 79.6875 84.5357C79.6875 82.4037 79.3676 80.2717 78.6745 78.2996C78.0347 76.2742 76.9683 74.5153 75.5287 72.9163C74.0892 71.3706 72.223 70.0914 69.877 69.132C67.5844 68.1726 64.7585 67.6929 61.5061 67.6929H37.833V120.193H49.403V101.378H61.5061V101.378ZM49.3497 76.7006H58.3071C59.64 76.7006 60.9196 76.8072 62.146 77.0204C63.3723 77.2336 64.4386 77.6067 65.3983 78.1397C66.3048 78.726 67.0512 79.5255 67.6377 80.5382C68.2242 81.5509 68.4908 82.9367 68.4908 84.589C68.4908 86.2413 68.2242 87.6271 67.6377 88.6398C67.0512 89.6525 66.3048 90.452 65.3983 91.0383C64.4919 91.6246 63.3723 91.9977 62.146 92.1576C60.9196 92.3708 59.64 92.4774 58.3071 92.4774H49.3497V76.7006Z" fill="#FFB600"/>
<path d="M127.46 112.625C129.432 110.28 130.925 107.455 131.885 104.257C132.845 101.005 133.378 97.4876 133.378 93.65C133.378 89.2794 132.791 85.4951 131.565 82.2438C130.339 78.9925 128.686 76.3275 126.553 74.1422C124.421 72.0102 121.915 70.3579 118.982 69.2919C116.05 68.2259 112.904 67.6929 109.545 67.6929H86.8848V120.193H109.545C113.544 120.193 117.063 119.5 120.048 118.168C123.034 116.835 125.487 115.023 127.46 112.625ZM113.597 109.693C112.051 110.226 110.398 110.493 108.745 110.493H98.4547V77.3935H106.719C109.545 77.3935 111.944 77.8199 113.917 78.6194C115.836 79.4189 117.436 80.5915 118.609 82.1372C119.782 83.6829 120.635 85.4951 121.168 87.6271C121.701 89.7591 121.915 92.1576 121.915 94.8226C121.915 97.7008 121.541 100.153 120.795 102.178C120.048 104.203 119.089 105.802 117.862 107.082C116.583 108.254 115.197 109.16 113.597 109.693Z" fill="#FFB600"/>
<path d="M178.377 77.3935V67.6929H141.428V120.247H152.944V98.5536H174.965V89.5459H152.944V77.3935H178.377Z" fill="#FFB600"/>
<path d="M178.693 134.155H37.4004V145.402H178.693V134.155Z" fill="#FFB600"/>
<path d="M77.4421 182.821H37.4004V194.068H77.4421V182.821Z" fill="#FFB600"/>
<path d="M156.726 169.76C156.992 169.28 157.312 168.801 157.632 168.374C157.685 168.268 157.792 168.161 157.845 168.055C158.112 167.681 158.379 167.308 158.645 166.882C158.699 166.775 158.752 166.722 158.805 166.615C159.445 165.709 160.138 164.803 160.831 163.897C160.885 163.844 160.938 163.737 160.991 163.684C161.311 163.258 161.631 162.884 162.004 162.458C162.058 162.405 162.058 162.405 162.111 162.351C162.857 161.445 163.657 160.593 164.457 159.74C164.51 159.686 164.51 159.686 164.563 159.633C164.99 159.207 165.363 158.834 165.79 158.407H37.4004V169.654L156.726 169.76Z" fill="#FFB600"/>
</svg>

<svg width="256" height="256" fill="none" xmlns="http://www.w3.org/2000/svg"><path d="M204.717 153.983c-24.793 0-44.947 20.148-44.947 44.932 0 24.785 20.154 44.932 44.947 44.932 24.792 0 44.946-20.147 44.946-44.932 0-24.784-20.154-44.932-44.946-44.932zm-.64 81.336l-35.723-32.193 7.518-8.368 23.246 20.947v-49.409h11.25v48.609l23.3-20.254 7.358 8.475-36.949 32.193z" fill="#FFB600"/><path d="M172.245 244.754H17.25V11.246H160.57V48.45h37.909v94.661a59.362 59.362 0 016.238-.32c1.706 0 3.359.053 5.012.213V40.721l-3.626-3.57-34.283-33.58L168.193 0H6v256h203.781v-1.119c-1.653.16-3.359.213-5.012.213-12.156 0-23.353-3.838-32.524-10.34zm-.426-225.726l18.554 18.175h-18.554V19.028z" fill="#FFB600"/><path d="M61.506 101.378c3.306 0 6.078-.479 8.371-1.439 2.293-.959 4.159-2.238 5.652-3.784a14.07 14.07 0 003.145-5.383c.64-2.026 1.013-4.104 1.013-6.236 0-2.132-.32-4.264-1.013-6.236-.64-2.026-1.706-3.785-3.145-5.384-1.44-1.545-3.306-2.825-5.652-3.784-2.293-.96-5.118-1.44-8.37-1.44H37.832v52.501h11.57v-18.815h12.103zM49.35 76.701h8.957c1.333 0 2.613.106 3.839.32 1.226.213 2.293.586 3.252 1.119.907.586 1.653 1.385 2.24 2.398.586 1.013.853 2.399.853 4.051 0 1.652-.267 3.038-.853 4.05-.587 1.014-1.333 1.813-2.24 2.4-.906.586-2.026.959-3.252 1.119-1.226.213-2.506.32-3.839.32H49.35V76.7zM127.46 112.625c1.972-2.345 3.465-5.17 4.425-8.368.96-3.252 1.493-6.77 1.493-10.607 0-4.37-.587-8.155-1.813-11.406-1.226-3.251-2.879-5.916-5.012-8.102-2.132-2.132-4.638-3.784-7.571-4.85-2.932-1.066-6.078-1.6-9.437-1.6h-22.66v52.501h22.66c3.999 0 7.518-.693 10.503-2.025 2.986-1.333 5.439-3.145 7.412-5.543zm-13.863-2.932c-1.546.533-3.199.8-4.852.8h-10.29v-33.1h8.264c2.826 0 5.225.427 7.198 1.226 1.919.8 3.519 1.972 4.692 3.518 1.173 1.546 2.026 3.358 2.559 5.49.533 2.132.747 4.53.747 7.196 0 2.878-.374 5.33-1.12 7.355-.747 2.025-1.706 3.624-2.933 4.904-1.279 1.172-2.665 2.078-4.265 2.611zM178.377 77.394v-9.701h-36.949v52.554h11.516V98.554h22.021v-9.008h-22.021V77.393h25.433zM178.693 134.155H37.4v11.247h141.293v-11.247zM77.442 182.821H37.4v11.247h40.042v-11.247zM156.726 169.76c.266-.48.586-.959.906-1.386.053-.106.16-.213.213-.319.267-.374.534-.747.8-1.173.054-.107.107-.16.16-.267.64-.906 1.333-1.812 2.026-2.718.054-.053.107-.16.16-.213.32-.426.64-.8 1.013-1.226l.107-.107c.746-.906 1.546-1.758 2.346-2.611l.106-.107 1.227-1.226H37.4v11.247l119.326.106z" fill="#FFB600"/></svg>
